X:1
T:F Major Timothy Swan, 1785 Revised by Swan 1802
T:Isaac Watts, 1717 (Psalm 24)   88. 88. (L. M.)
T:Bristol
T:Transcribed from New England Harmony, 1802.
%%score [ 1 2 3 4 ]
L:1/8
Q:1/4=150
M:none
K:F
V:1 treble nm="Treble" snm="Tr."
V:2 treble nm="Counter" snm="C."
V:3 treble-8 nm="Tenor" snm="T."
V:4 bass nm="Bass" snm="B."
V:1
 c8 | c6 c2 | c6 A2 | (B3 c d2) c2 | c6 f2 | f3 f gf ed | c6 c2 | c8 | z4 F4 | c2 A2 (BcdB | %10
w: 1.~Re-|joice, ye|shi- ning|worlds~ _ _ on|high, Be-|hold the King * of *|glo- ry|nigh!|Who|can this King~ _ _ _|
w: 2.~Raised|from the|dead, he|goes~ _ _ be-|fore; He|o- pens heav'n's * e- *|ter- nal|door,|To|give his saints~ _ _ _|
 G4) B4 | (ABcA F2) A2 | c6 c2 | (c3 B A2) cA | (B3 c d2) e2 | (f2 c2) (B2 A2) | G6 z2 | z8 | z8 | %19
w: _ of|glo- * * * * ry|be? The|migh- * * ty *|Lord, * * the|Sa- * vior's *|he.|||
w: _ a|blest~ _ _ _ _ s-|bode, Near|their * * Re- *|dee- * * mer|and * their *|God.|||
 z4 z2 A2 | A2 A2 A2 F2 | c2 A2 F2 c2 | c3 B A2 f2 | e3 d c2 c2 | f2 c2 A2 F2 | (F2 A2 c2) f2 | %26
w: Who|can this King of|glo- ry be? The|migh- ty Lord, the|Sa- vior's he, Who|can this King of|glo- * * ry|
w: To|give his saints a|blest a- bode Near|their Re- dee- mer|and their God. To|give his saints a|blest~ _ _ a-|
 (e3 d c2) f2 | (F2 A2 c2) f2 | e3 d c2 c2 | c8 |] %30
w: be?~ _ _ The|migh- * * ty|Lord, the Sa- vior's|he.|
w: bode~ _ _ Near|their~ _ _ Re-|dee- mer and their|God.|
V:2
 F8 | (G3 F E2) C2 | (F2 A4) F2 | (B3 A G2) G2 | A6 A2 | F3 A B2 G2 | (G3 F E2) G2 | F8 | z4 A4 | %9
w: |||||||||
w: |||||||||
 F2 F2 G4- | G4 G4 | F6 F2 | A6 F2 | A6 G2 | (F3 A G2) G2 | (A2 F2) (E2 F2) | G6 z2 | z8 | %18
w: |||||||||
w: |||||||||
 z4 z2 F2 | A2 A2 A2 F2 | A2 F2 D2 G2 | F3 G A2 A2 | A6 A2 | G6 G2 | F2 F2 F2 A2 | A6 A2 | %26
w: Who|can this King of|glo- ry be? The|migh- ty Lord, the|Sa- vior's|he. Who|can this King of|glo- ry|
w: To|give his saints a|blest a- bode Neart|their Re- dee- mer|and their|God. To|give his saints a|blest a-|
 (G4 F2) F2 | F4 A4 | cB AG F2 E2 | F8 |] %30
w: be?~ _ The|migh- ty|Lord, * the * Sa- vior's|he.|
w: bode~ _ Near|their Re-|dee- * mer * and their|God.|
V:3
 F8 | (c3 d c2) A2 | (f2 c2 A2) F2 | (d3 c d2) e2 | f6 c2 | d3 d d2 B2 | (AGAB A2) G2 | F8 | z8 | %9
w: 1.~Re-|joice,~ _ _ ye|shi- * * ning|worlds~ _ _ on|high, Be-|hold the King of|glo- * * * * ry|nigh!||
w: 2.~Raised|from~ _ _ the|dead,~ _ _ he|goes~ _ _ be-|fore; He|o- pens heav'n's e-|ter- * * * * nal|door,||
 z8 | z8 | z8 | z4 z2 c2 | (f3 e f2) A2 | d6 c2 | (c2 A2) (G2 F2) | c6 z2 | z4 z2 F2 | %18
w: |||The|migh- * * ty|Lord, the|Sa- * vior's *|he.|Who|
w: |||Near|their * * Re-|dee- mer|and * their *|God.|To|
 A2 A2 A2 F2 | c2 A2 F2 c2 | f2 d2 d2 c2 | (c3 B A2) f2 | (e3 d c2) f2 | A4 G4 | (ABcd c2) f2 | %25
w: can this King of|glo- ry be? The|migh- ty Lord, the|Sa- * * vior's|he.~ _ _ Who|can this|King~ _ _ _ _ of|
w: give his saints a|blest a- bode Near|their Re- dee- mer|and~ _ _ their|God.~ _ _ To|give his|saints~ _ _ _ _ a|
 (d2 Bd cA) F2 | (G4 A2) c2 | (c2 A2 d2) f2 | c3 d cB AG | F8 |] %30
w: glo- * * * * ry|be?~ _ The|migh- * * ty|Lord, the Sa- * vior's *|he.|
w: blest~ _ _ _ _ a-|bode~ _ Near|their~ _ _ Re-|dee- mer and * their *|God.|
V:4
 F,8 | C,6 F,2 | F,6 A,2 | G,6 C,2 | F,6 F,2 | B,3 A, G,2 G,2 | D4 C,4 | F,8 | z8 | z8 | z8 | z8 | %12
w: ||||||||||||
w: ||||||||||||
 z4 z2 F,2 | F,6 C2 | (B,3 A, G,2) C,2 | F,4 (E,2 D,2) | C,6 F,2 | A,2 A,2 A,2 F,2 | %18
w: ||||* Who|can this King of|
w: ||||* To|give his saints a|
 C2 A,2 F,2 F,2 | F,2 D,2 D,2 C,2 | D,6 F,2 | F,6 F,2 | A,6 F,2 | C2 C2 C,2 C,2 | F,6 D,2 | %25
w: glo- ry be? The|migh- ty Lord, the|Sa- vior's|he. Who|can this|King of glo- ry|be? The|
w: blest a- bode Near|their Re- dee- mer|and their|God. To|give his|saints a blest a-|bode Near|
 D,2 D,2 F,2 F,2 | C,2 C,2 F,4 | F,4 G,F, E,D, | C,3 B,, A,,2 C,2 | F,8 |] %30
w: migh- ty Lord, the|Sa- vior's he.|The migh- * ty *|Lord, the Sa- vior's|he.|
w: their Re- dee- mer|and their God,|Near their * Re- *|dee- mer and their|God.|

